icons/flood-fill.svg

<svg xmlns="http://www.w3.org/2000/svg" width="24" height="24" fill="none"><g clip-path="url(#a)"><g><path fill="#121212" d="M16 17.472C17.0989 18.4578 18.5237 19.0021 20 19H22V21H20C18.5956 21.0023 17.2157 20.6332 16 19.93C14.7844 20.6333 13.4044 21.0025 12 21C10.5956 21.0023 9.21565 20.6332 8 19.93C6.7844 20.6333 5.40438 21.0025 4 21H2V19H4C5.537 19 6.94 18.422 8 17.472C9.09893 18.4578 10.5237 19.0021 12 19C13.537 19 14.94 18.422 16 17.472ZM12.573 1.53204L12.673 1.61204L23 11H20V17C19.2237 17.0007 18.4579 16.8202 17.7635 16.473C17.0691 16.1258 16.4653 15.6215 16 15C15.5348 15.6216 14.931 16.126 14.2366 16.4732C13.5422 16.8204 12.7764 17.0008 12 17C11.2237 17.0007 10.4579 16.8202 9.76351 16.473C9.06913 16.1258 8.4653 15.6215 8 15C7.53481 15.6216 6.931 16.126 6.2366 16.4732C5.5422 16.8204 4.77636 17.0008 4 17L3.999 11H1L11.327 1.61204C11.4791 1.47359 11.6701 1.38538 11.8741 1.35943C12.0781 1.33349 12.2851 1.37106 12.467 1.46704L12.573 1.53204Z"/></g></g><defs><clipPath id="a"><rect width="24" height="24" fill="white"/></clipPath></defs></svg>

<svg width="24" height="24" fill="none" xmlns="http://www.w3.org/2000/svg"><g clip-path="url(#a)"><path d="M16 17.472A5.977 5.977 0 0 0 20 19h2v2h-2a7.962 7.962 0 0 1-4-1.07A7.96 7.96 0 0 1 12 21a7.962 7.962 0 0 1-4-1.07A7.96 7.96 0 0 1 4 21H2v-2h2c1.537 0 2.94-.578 4-1.528A5.977 5.977 0 0 0 12 19c1.537 0 2.94-.578 4-1.528Zm-3.427-15.94.1.08L23 11h-3v6a4.991 4.991 0 0 1-4-2 4.99 4.99 0 0 1-4 2 4.99 4.99 0 0 1-4-2 4.99 4.99 0 0 1-4 2l-.001-6H1l10.327-9.388a1 1 0 0 1 1.14-.145l.106.065Z" /></g><defs><clipPath id="a"><path fill="#fff" d="M0 0h24v24H0z"/></clipPath></defs></svg>
